images/icons/behance-16.svg

<svg width="16" height="17" viewBox="0 0 16 17" fill="none" xmlns="http://www.w3.org/2000/svg">
<g clip-path="url(#clip0)">
<path d="M6.5 7.9C6.5 7.9 8 7.8 8 6C8 4.2 6.6 3.5 5 3.5H0V13.5H5C5 13.5 8.3 13.4 8.3 10.4C8.3 10.4 8.5 7.9 6.5 7.9ZM2.3 5.1H4.8H5.2C5.2 5.1 5.9 5.1 5.9 6.1C5.9 7.1 5.5 7.3 5 7.3H2.3V5.1ZM5 11.5H2.3V8.9H5.2C5.2 8.9 6.2 8.9 6.2 10.3C6.2 11.4 5.4 11.5 5 11.5Z" fill="#37394F"/>
<path d="M12.5 5.8999C8.69996 5.8999 8.69996 9.6999 8.69996 9.6999C8.69996 9.6999 8.39996 13.4999 12.5 13.4999C12.5 13.4999 15.9 13.6999 15.9 10.8999H14.2C14.2 10.8999 14.3 11.9999 12.6 11.9999C12.6 11.9999 10.9 12.0999 10.9 10.2999H16C16 10.1999 16.5 5.8999 12.5 5.8999ZM14.1 8.8999H10.8C10.8 8.8999 11 7.3999 12.5 7.3999C14.1 7.2999 14.1 8.8999 14.1 8.8999Z" fill="#37394F"/>
<path d="M15 3.5H10V4.5H15V3.5Z" fill="#37394F"/>
</g>
<defs>
<clipPath id="clip0">
<rect width="16" height="16" fill="white" transform="translate(0 0.5)"/>
</clipPath>
</defs>
</svg>

<svg width="16" height="17" fill="none" xmlns="http://www.w3.org/2000/svg"><g clip-path="url(#clip0)" fill="#37394F"><path d="M6.5 7.9S8 7.8 8 6c0-1.8-1.4-2.5-3-2.5H0v10h5s3.3-.1 3.3-3.1c0 0 .2-2.5-1.8-2.5zM2.3 5.1h2.9s.7 0 .7 1-.4 1.2-.9 1.2H2.3V5.1zM5 11.5H2.3V8.9h2.9s1 0 1 1.4c0 1.1-.8 1.2-1.2 1.2zM12.5 5.8999c-3.8 0-3.8 3.8-3.8 3.8s-.3 3.8 3.8 3.8c0 0 3.4.2 3.4-2.6h-1.7s.1 1.1-1.6 1.1c0 0-1.7.1-1.7-1.7H16c0-.1.5-4.4-3.5-4.4zm1.6 3h-3.3s.2-1.5 1.7-1.5c1.6-.1 1.6 1.5 1.6 1.5zM15 3.5h-5v1h5v-1z"/></g><defs><clipPath id="clip0"><path fill="#fff" transform="translate(0 .5)" d="M0 0h16v16H0z"/></clipPath></defs></svg>
